X:611
T:Reel 611
M:4/4
K:Ador
L:1/8
ED|C2A,C B,G,G,B,|A,G,E,F, G,E,D,F,|E,A,A,B, CB,CD|EAAF GFED|CB,A,B, B,A,G,B,|A,G,E,F, G,E,D,F,|E,A,A,B, CDED|CA,B,G, A,2z2|EAAB AGEG|AGBG AGEF|GFGA GFEF|GEAF GFED|EAAB AGEG|AGBG AGEF|G2GA BGEF|GEDB, A,2|
